X: 163
M: C
L: 1/8
K: G
d2d>f e2e>g | f2d'>b {b}Ta3g |\
f2 ((3afd) e2 ((3gec) | d2d>d d2 :: A2 |\
a>ba>g f2f2 | g>ag>f {f2}Te4 |
a>ba>g f>gf>g | ab ag/f/ {f}Te2A2 |\
d2d>f e2e>g | f2d'>b {b}Ta3g |\
f2 ((3afd) e2((3gec) | d2d>d d2 :|

